svg/300/sharp/edit_calendar.svg

<svg xmlns="http://www.w3.org/2000/svg" width="48" height="48" viewBox="0 -960 960 960"><path d="M140.001-100.001v-694.613H271.54v-70h50.384v70h317.691v-70h49.229v70h131.155v301.538h-45.384v-61.923h-589.23v409.614h306.153v45.384H140.001Zm45.384-500.381h589.23V-749.23h-589.23v148.848Zm0 0V-749.23v148.848Zm379.231 500.381v-105.692l250.691-249.691 104.691 105.076-249.691 250.307H564.616Zm287.691-250.307-37-37.385 37 37.385Zm-240 202.615h38l129.847-130.462-18.385-19-18.615-18.769-130.847 130.231v38Zm149.462-149.462-18.615-18.769 37 37.769-18.385-19Z"/></svg>

<svg xmlns="http://www.w3.org/2000/svg" width="48" height="48" viewBox="0 -960 960 960"><path d="M140-100v-694.61h131.54v-70h50.38v70h317.69v-70h49.23v70H820v301.53h-45.39V-555H185.39v409.61h306.15V-100H140Zm45.39-500.38h589.22v-148.85H185.39v148.85Zm0 0v-148.85 148.85ZM564.62-100v-105.69l250.69-249.69L920-350.31 670.31-100H564.62Zm287.69-250.31-37-37.38 37 37.38Zm-240 202.62h38l129.84-130.47-18.38-19-18.62-18.76-130.84 130.23v38Zm149.46-149.47-18.62-18.76 37 37.76-18.38-19Z"/></svg>
